build/svg/cmd/32/dbviewaliases.svg

<svg xmlns="http://www.w3.org/2000/svg" viewBox="0 0 32 32"><path d="M16 3a6 6 0 00-6 6 6 6 0 006 6 6 6 0 006-6 6 6 0 00-6-6zm0 13c-4.97 0-9 2.373-9 9v3h18v-3c0-6.627-4.03-9-9-9z" opacity=".6" stroke="#000" stroke-width="2" stroke-linejoin="round"/><path d="M16 3a6 6 0 00-6 6 6 6 0 006 6 6 6 0 006-6 6 6 0 00-6-6zm0 13c-4.97 0-9 2.373-9 9v3h18v-3c0-6.627-4.03-9-9-9z" fill="#aee3f8"/></svg>

<?xml version="1.0" encoding="UTF-8" standalone="no"?>
<svg
   xmlns:dc="http://purl.org/dc/elements/1.1/"
   xmlns:cc="http://creativecommons.org/ns#"
   xmlns:rdf="http://www.w3.org/1999/02/22-rdf-syntax-ns#"
   xmlns:svg="http://www.w3.org/2000/svg"
   xmlns="http://www.w3.org/2000/svg"
   xmlns:sodipodi="http://sodipodi.sourceforge.net/DTD/sodipodi-0.dtd"
   xmlns:inkscape="http://www.inkscape.org/namespaces/inkscape"
   viewBox="0 0 32 32"
   version="1.1"
   id="svg4"
   sodipodi:docname="dbviewaliases.svg"
   inkscape:export-filename="/home/jupiter007/Libreoffice yaru theme fullcolor/build/cmd/32/dbviewaliases.png"
   inkscape:export-xdpi="96"
   inkscape:export-ydpi="96"
   inkscape:version="0.92.5 (2060ec1f9f, 2020-04-08)">
  <metadata
     id="metadata10">
    <rdf:RDF>
      <cc:Work
         rdf:about="">
        <dc:format>image/svg+xml</dc:format>
        <dc:type
           rdf:resource="http://purl.org/dc/dcmitype/StillImage" />
      </cc:Work>
    </rdf:RDF>
  </metadata>
  <defs
     id="defs8" />
  <sodipodi:namedview
     pagecolor="#ffffff"
     bordercolor="#666666"
     borderopacity="1"
     objecttolerance="10"
     gridtolerance="10"
     guidetolerance="10"
     inkscape:pageopacity="0"
     inkscape:pageshadow="2"
     inkscape:window-width="1920"
     inkscape:window-height="1011"
     id="namedview6"
     showgrid="true"
     inkscape:zoom="20.85965"
     inkscape:cx="17.190199"
     inkscape:cy="13.103292"
     inkscape:window-x="0"
     inkscape:window-y="32"
     inkscape:window-maximized="1"
     inkscape:current-layer="svg4">
    <inkscape:grid
       type="xygrid"
       id="grid827" />
  </sodipodi:namedview>
  <path
     style="opacity:0.6;fill:#000000;fill-opacity:1;stroke:#000000;stroke-width:2;stroke-linejoin:round;stroke-miterlimit:4;stroke-dasharray:none;stroke-opacity:1"
     d="M 16 3 A 6 6 0 0 0 10 9 A 6 6 0 0 0 16 15 A 6 6 0 0 0 22 9 A 6 6 0 0 0 16 3 z M 16 16 C 11.029437 16 7 18.372583 7 25 L 7 28 L 25 28 L 25 25 C 25 18.372583 20.970563 16 16 16 z "
     id="path832" />
  <path
     style="opacity:1;fill:#aee3f8;fill-opacity:1;stroke:none;stroke-width:2.50217319;stroke-linejoin:round;stroke-miterlimit:4;stroke-dasharray:none;stroke-opacity:1"
     d="M 16 3 A 6 6 0 0 0 10 9 A 6 6 0 0 0 16 15 A 6 6 0 0 0 22 9 A 6 6 0 0 0 16 3 z M 16 16 C 11.029437 16 7 18.372583 7 25 L 7 28 L 25 28 L 25 25 C 25 18.372583 20.970563 16 16 16 z "
     id="path829" />
</svg>
